public/avatar/shoe/105.svg

<svg xmlns:xlink="http://www.w3.org/1999/xlink" height="38.3" width="36.05" xmlns="http://www.w3.org/2000/svg"><use height="18.35" transform="translate(5.65 10.65)" width="26.55" xlink:href="#a"/><defs><g id="a" fill-rule="evenodd"><path d="M-.35-4.2q5.2-.25 7.5 5.05 2.1 4.7.65 6.7-2 2.95-7.65 5.1-7.05 2.85-12.65.2-5.7-2.6-5.65-7.35L-17 1.25q.8 4.1 4.85 1.65l5.95-4.3q3.75-2.75 5.85-2.8" fill="#333" transform="translate(18.15 4.2)"/><path d="M-.4-3.45Q4-3.65 6.1.9q1.95 4.1.65 5.85Q4.85 9.3 0 11.4q-6.7 3-12.1.45-4.1-1.95-4.75-5.45l.2-3.1q.75 3.2 4.7.75l5.8-4.5q3.7-2.95 5.75-3" fill="#215b99" transform="translate(18.15 4.2)"/><path d="M4.85 5.5Q3.1 7.85-.75 9.65q-5.5 2.6-10.45.25-3.25-1.6-4.25-3.05l-.3-1.1q.8.85 4.35-1.35L-5.95.05q3.5-2.95 5.35-3Q3.25-3.1 4.75.6q1.3 3.3.1 4.9" fill="#4299ff" transform="translate(18.15 4.2)"/><path d="M-14 6.65q4.15 2.2 11.9 2.6-6.75 2.6-11.9-2.6m11.95-8.5Q-4.35.1-2.9 2.8q1.15 2.2.65 2.7l-2.95-.15-5.8-.5q1.9-1 3.65-2.45l5.3-4.25" fill="#42c7ff" transform="translate(18.15 4.2)"/><path d="M2.55 3.5q.6 1.4-.4 3.25-1 1.8-2.1.5-3.15-3.7-7.5-3.75l-3.75.65 4.45-4Q-3.5-1.15-.6.4q2.35 1.2 3.15 3.1" fill="#333" transform="translate(18.15 4.2)"/><path d="M2 3.5q.6 1.25-.2 2.6Q1 7.55 0 6.5q-2.95-3.2-6.9-3.45l-3.35.45L-6.5.4q2.9-.9 5.6.45 2.05 1 2.9 2.65" fill="#f9cd52" transform="translate(18.15 4.2)"/><path d="m5.15.1.6 1.2q.85 2.2.8 3.75-.2.85-.45.55-.05-3.35-.95-5.5" fill="#4299ff" transform="translate(18.15 4.2)"/><path d="m-3.2 1.3.05-.1L.1 2.95l-4.4.25v-.05l-.25-.05-1.7 1.25-.1-1.9-.05.05L-8.75 1l3.4-.4.4-.05 1.5-1.2.25 1.9v.05" fill="#f99952" transform="translate(18.15 4.2)"/><path d="m-6.25 2.1-1.25-.8 1.85-.2-.6 1m2.7-.5-.65 1.1-1.8-.45.6-1 1.85.35m2.05 1.1-2.5.05.6-1.05 1.9 1m-2.15-1.45-1.3-.3 1.3-1v1.3m-2.3 1.45 1.2.25-1.25.9.05-1.15" fill="#ffffc5" transform="translate(18.15 4.2)"/></g></defs></svg>

<?xml version="1.0" encoding="UTF-8" standalone="no"?>
<svg xmlns:xlink="http://www.w3.org/1999/xlink" height="38.3px" width="36.05px" xmlns="http://www.w3.org/2000/svg">
  <g transform="matrix(1.0, 0.0, 0.0, 1.0, 23.8, 14.85)">
    <use height="18.35" transform="matrix(1.0, 0.0, 0.0, 1.0, -18.15, -4.2)" width="26.55" xlink:href="#shape0"/>
  </g>
  <defs>
    <g id="shape0" transform="matrix(1.0, 0.0, 0.0, 1.0, 18.15, 4.2)">
      <path d="M-0.35 -4.2 Q4.85 -4.45 7.15 0.85 9.25 5.55 7.8 7.55 5.8 10.5 0.15 12.65 -6.9 15.5 -12.5 12.85 -18.2 10.25 -18.15 5.5 L-17.0 1.25 Q-16.2 5.35 -12.15 2.9 L-6.2 -1.4 Q-2.45 -4.15 -0.35 -4.2" fill="#333333" fill-rule="evenodd" stroke="none"/>
      <path d="M-0.4 -3.45 Q4.0 -3.65 6.1 0.9 8.05 5.0 6.75 6.75 4.85 9.3 0.0 11.4 -6.7 14.4 -12.1 11.85 -16.2 9.9 -16.85 6.4 L-16.65 3.3 Q-15.9 6.5 -11.95 4.05 L-6.15 -0.45 Q-2.45 -3.4 -0.4 -3.45" fill="#215b99" fill-rule="evenodd" stroke="none"/>
      <path d="M4.85 5.5 Q3.1 7.85 -0.75 9.65 -6.25 12.25 -11.2 9.9 -14.45 8.3 -15.45 6.85 L-15.75 5.75 Q-14.95 6.6 -11.4 4.4 L-5.95 0.05 Q-2.45 -2.9 -0.6 -2.95 3.25 -3.1 4.75 0.6 6.05 3.9 4.85 5.5" fill="#4299ff" fill-rule="evenodd" stroke="none"/>
      <path d="M-14.0 6.65 Q-9.85 8.85 -2.1 9.25 -8.85 11.85 -14.0 6.65" fill="#42c7ff" fill-rule="evenodd" stroke="none"/>
      <path d="M-2.05 -1.85 Q-4.35 0.1 -2.9 2.8 -1.75 5.0 -2.25 5.5 L-5.2 5.35 -11.0 4.85 Q-9.1 3.85 -7.35 2.4 L-2.05 -1.85" fill="#42c7ff" fill-rule="evenodd" stroke="none"/>
      <path d="M2.55 3.5 Q3.15 4.9 2.15 6.75 1.15 8.55 0.05 7.25 -3.1 3.55 -7.45 3.5 L-11.2 4.15 -6.75 0.15 Q-3.5 -1.15 -0.6 0.4 1.75 1.6 2.55 3.5" fill="#333333" fill-rule="evenodd" stroke="none"/>
      <path d="M2.0 3.5 Q2.6 4.75 1.8 6.1 1.0 7.55 0.0 6.5 -2.95 3.3 -6.9 3.05 L-10.25 3.5 -6.5 0.4 Q-3.6 -0.5 -0.9 0.85 1.15 1.85 2.0 3.5" fill="#f9cd52" fill-rule="evenodd" stroke="none"/>
      <path d="M5.15 0.1 L5.75 1.3 Q6.6 3.5 6.55 5.05 6.35 5.9 6.1 5.6 6.05 2.25 5.15 0.1" fill="#4299ff" fill-rule="evenodd" stroke="none"/>
      <path d="M-3.2 1.3 L-3.15 1.2 0.1 2.95 -4.3 3.2 -4.3 3.15 -4.55 3.1 -6.25 4.35 -6.35 2.45 -6.4 2.5 -8.75 1.0 -5.35 0.6 -4.95 0.55 -3.45 -0.65 -3.2 1.25 -3.2 1.3" fill="#f99952" fill-rule="evenodd" stroke="none"/>
      <path d="M-6.25 2.1 L-7.5 1.3 -5.65 1.1 -6.25 2.1 M-3.55 1.6 L-4.2 2.7 -6.0 2.25 -5.4 1.25 -3.55 1.6 M-1.5 2.7 L-4.0 2.75 -3.4 1.7 -1.5 2.7 M-3.65 1.25 L-4.95 0.95 -3.65 -0.05 -3.65 1.25 M-5.95 2.7 L-4.75 2.95 -6.0 3.85 -5.95 2.7" fill="#ffffc5" fill-rule="evenodd" stroke="none"/>
    </g>
  </defs>
</svg>
